fs/fluid_16_filled.svg

<svg viewBox="0 0 16 16" fill="none" xmlns="http://www.w3.org/2000/svg" height="1em" width="1em">
  <path d="M1 2.5C1 1.67157 1.67157 1 2.5 1H4.5C5.32843 1 6 1.67157 6 2.5V4.5C6 5.32843 5.32843 6 4.5 6H2.5C1.67157 6 1 5.32843 1 4.5V2.5ZM8.00049 9.49988C8.00049 8.67145 8.67206 7.99988 9.50049 7.99988H13.5005C14.3289 7.99988 15.0005 8.67145 15.0005 9.49988V13.4999C15.0005 14.3283 14.3289 14.9999 13.5005 14.9999H9.50049C8.67206 14.9999 8.00049 14.3283 8.00049 13.4999V9.49988ZM3.00049 10.4999V7.0001H4.00049V10.4999C4.00049 10.7761 4.22435 10.9999 4.50049 10.9999H7.00068V11.9999H4.50049C3.67206 11.9999 3.00049 11.3283 3.00049 10.4999ZM7.00068 3.00012V4.00012L10.5005 4.00034C10.7766 4.00035 11.0005 4.22421 11.0005 4.50034V7.0001H12.0005V4.50034C12.0005 3.67194 11.329 3.00039 10.5006 3.00034L7.00068 3.00012Z" fill="#212121"/>
</svg>

<svg viewBox="0 0 16 16" fill="none" xmlns="http://www.w3.org/2000/svg" height="1em" width="1em">
  <path d="M1 2.5A1.5 1.5 0 0 1 2.5 1h2A1.5 1.5 0 0 1 6 2.5v2A1.5 1.5 0 0 1 4.5 6h-2A1.5 1.5 0 0 1 1 4.5v-2Zm7 7A1.5 1.5 0 0 1 9.5 8h4A1.5 1.5 0 0 1 15 9.5v4a1.5 1.5 0 0 1-1.5 1.5h-4A1.5 1.5 0 0 1 8 13.5v-4Zm-5 1V7h1v3.5a.5.5 0 0 0 .5.5H7v1H4.5A1.5 1.5 0 0 1 3 10.5ZM7 3v1h3.5a.5.5 0 0 1 .5.5V7h1V4.5A1.5 1.5 0 0 0 10.5 3H7Z" fill="#212121"/>
</svg>
